www/assets/icons/savings.svg

<svg xmlns="http://www.w3.org/2000/svg" width="24" height="24" viewBox="0 0 24 24" fill='currentColor'><path d="m19.83 8-2.27-2.27c.07-.42.18-.81.32-1.15A1.498 1.498 0 0 0 16.5 2.5c-1.64 0-3.09.79-4 2h-5C4.46 4.5 2 6.96 2 10s2.5 11.5 2.5 11.5H10v-2h2v2h5.5l1.68-5.59 2.82-.94V8zM13 9.5H8v-2h5zm3 2c-.55 0-1-.45-1-1s.45-1 1-1 1 .45 1 1-.45 1-1 1"/></svg>

<svg width="24" height="24" viewBox="0 0 24 24" xmlns="http://www.w3.org/2000/svg" fill='currentColor'><path d="M19.83 8L17.56 5.73C17.63 5.31 17.74 4.92 17.88 4.58C17.96 4.4 18 4.21 18 4C18 3.17 17.33 2.5 16.5 2.5C14.86 2.5 13.41 3.29 12.5 4.5H7.5C4.46 4.5 2 6.96 2 10C2 13.04 4.5 21.5 4.5 21.5H10V19.5H12V21.5H17.5L19.18 15.91L22 14.97V8H19.83ZM13 9.5H8V7.5H13V9.5ZM16 11.5C15.45 11.5 15 11.05 15 10.5C15 9.95 15.45 9.5 16 9.5C16.55 9.5 17 9.95 17 10.5C17 11.05 16.55 11.5 16 11.5Z"/></svg>
